X: 135
T: Jin xiu hebao
%%abc-version 2.0
%%abcx-abcm2ps-target-version 5.9.1 (29 Sep 2008)
%%abc-creator hum2abc beta
%%abcx-conversion-date 2013/10/02 07:52:29
%%abc-edited-by Helmut Schaffrath
%%humdrum-veritas 2553827016
%%humdrum-veritas-data 3480256311
%%continueall 1
%%barnumbers 0
L: 1/16
M: 2/4
K: Eb
B2 c2 e2 e e [I:setbarnb 1]| 
e cB4c2 | 
e2 e e c e c B | 
c BG4F2 | 
G FG6 | 
B2 c2 e2 e e | 
e cB4c2 | 
e2 e e c e c B | 
c BG4F2 | 
G FG6 | 
F G C2E4 | 
G2 e2 c2 B2 | 
G B G2 F2 E2 | 
C2 B,2C4 | 
E2E4F2 | 
G2 e2 c2 B B | 
c BE4F2 | 
G2 G2 B3 G | 
F G F2 G F E2 | 
F EC4B,2 | 
C8 |]  



